icons/calendar-list.svg

<svg xmlns="http://www.w3.org/2000/svg" width="24" height="24" viewBox="0 0 24 24">
  <path d="M22,10 L22,20 C22,21.6568542 20.6568542,23 19,23 L5,23 C3.34314575,23 2,21.6568542 2,20 L2,10 L22,10 Z M17,17 L7,17 L6.88337887,17.0067277 C6.38604019,17.0644928 6,17.4871642 6,18 C6,18.5522847 6.44771525,19 7,19 L7,19 L17,19 L17.1166211,18.9932723 C17.6139598,18.9355072 18,18.5128358 18,18 C18,17.4477153 17.5522847,17 17,17 L17,17 Z M17,13 L7,13 L6.88337887,13.0067277 C6.38604019,13.0644928 6,13.4871642 6,14 C6,14.5522847 6.44771525,15 7,15 L7,15 L17,15 L17.1166211,14.9932723 C17.6139598,14.9355072 18,14.5128358 18,14 C18,13.4477153 17.5522847,13 17,13 L17,13 Z M7,3 L7,4 L7.00672773,4.11662113 C7.06449284,4.61395981 7.48716416,5 8,5 C8.51283584,5 8.93550716,4.61395981 8.99327227,4.11662113 L9,4 L9,3 L15,3 L15,4 L15.0067277,4.11662113 C15.0644928,4.61395981 15.4871642,5 16,5 C16.5128358,5 16.9355072,4.61395981 16.9932723,4.11662113 L17,4 L17,3 L19,3 C20.6568542,3 22,4.34314575 22,6 L22,8 L2,8 L2,6 C2,4.34314575 3.34314575,3 5,3 L7,3 Z M16,1 C16.5128358,1 16.9355072,1.38604019 16.9932723,1.88337887 L17,2 L17,3 L15,3 L15,2 C15,1.44771525 15.4477153,1 16,1 Z M8,1 C8.51283584,1 8.93550716,1.38604019 8.99327227,1.88337887 L9,2 L9,3 L7,3 L7,2 C7,1.44771525 7.44771525,1 8,1 Z"/>
</svg>

<svg xmlns="http://www.w3.org/2000/svg" viewBox="0 0 24 24">
  <path d="M22 10v10a3 3 0 0 1-3 3H5a3 3 0 0 1-3-3V10h20zm-5 7H6.88A1 1 0 0 0 7 19h10.12a1 1 0 0 0-.12-2zm0-4H6.88A1 1 0 0 0 7 15h10.12a1 1 0 0 0-.12-2zM7 3v1.12a1 1 0 0 0 2 0V3h6v1.12a1 1 0 0 0 2 0V3h2a3 3 0 0 1 3 3v2H2V6a3 3 0 0 1 3-3h2zm9-2a1 1 0 0 1 1 .88V3h-2V2a1 1 0 0 1 1-1zM8 1a1 1 0 0 1 1 .88V3H7V2a1 1 0 0 1 1-1z"/>
</svg>
